!!!COM: Beethoven
!!!OTL: 32 Variationen fur das pianoforte
!!!Variation: Variation 9 a
**function	**harm	**kern	**kern
*	*	*clefF4	*clefG2
*	*	*k[b-e-a-]	*k[b-e-a-]
*M3/4	*M3/4	*M3/4	*M3/4
*c:	*c:	*c:	*c:
=73	=73	=73	=73
*	*	*	*^
2.T	2.i	16cLL	4r	24gLL
.	.	.	.	24a-
.	.	16e-	.	.
.	.	.	.	24g
.	.	16c	.	24a-
.	.	.	.	24g
.	.	16e-JJ	.	.
.	.	.	.	24a-JJ
.	.	16cLL	(4ee-	24gLL
.	.	.	.	24a-
.	.	16e-	.	.
.	.	.	.	24g
.	.	16c	.	24a-
.	.	.	.	24g
.	.	16e-JJ	.	.
.	.	.	.	24a-JJ
.	.	16cLL	8cc)	24gLL
.	.	.	.	24a-
.	.	16e-	.	.
.	.	.	.	24g
.	.	16c	8r	24a-
.	.	.	.	24g
.	.	16e-JJ	.	.
.	.	.	.	24a-JJ
=74	=74	=74	=74	=74
2.T	2.Vb	16BLL	4r	24gLL
.	.	.	.	24a-
.	.	16d	.	.
.	.	.	.	24g
.	.	16B	.	24a-
.	.	.	.	24g
.	.	16dJJ	.	.
.	.	.	.	24a-JJ
.	.	16BLL	(4dd	24gLL
.	.	.	.	24a-
.	.	16d	.	.
.	.	.	.	24g
.	.	16B	.	24a-
.	.	.	.	24g
.	.	16dJJ	.	.
.	.	.	.	24a-JJ
.	.	16BLL	8gg)	24gLL
.	.	.	.	24a-
.	.	16d	.	.
.	.	.	.	24g
.	.	16B	8r	24a-
.	.	.	.	24g
.	.	16dJJ	.	.
.	.	.	.	24a-JJ
=75	=75	=75	=75	=75
2.T	2.viioD7c/IV	16B-LL	4r	24gLL
.	.	.	.	24a
.	.	16d-	.	.
.	.	.	.	24g
.	.	16B-	.	24a
.	.	.	.	24g
.	.	16d-JJ	.	.
.	.	.	.	24aJJ
.	.	16B-LL	(4dd#	24gLL
.	.	.	.	24a
.	.	16d-	.	.
.	.	.	.	24g
.	.	16B-	.	24a
.	.	.	.	24g
.	.	16d-JJ	.	.
.	.	.	.	24aJJ
.	.	16B-LL	8ee)	24gLL
.	.	.	.	24a
.	.	16d-	.	.
.	.	.	.	24g
.	.	16B-	8r	24a
.	.	.	.	24g
.	.	16d-JJ	.	.
.	.	.	.	24aJJ
=76	=76	=76	=76	=76
2.P	2.IVb	16ALL	4r	24aLL
.	.	.	.	24b-
.	.	16c	.	.
.	.	.	.	24a
.	.	16A	.	24b-
.	.	.	.	24a
.	.	16cJJ	.	.
.	.	.	.	24b-JJ
.	.	16ALL	(4ee	24aLL
.	.	.	.	24b-
.	.	16c	.	.
.	.	.	.	24a
.	.	16A	.	24b-
.	.	.	.	24a
.	.	16cJJ	.	.
.	.	.	.	24b-JJ
.	.	16ALL	8ff)	24aLL
.	.	.	.	24b-
.	.	16c	.	.
.	.	.	.	24a
.	.	16A	8r	24b-
.	.	.	.	24a
.	.	16cJJ	.	.
.	.	.	.	24b-JJ
=77	=77	=77	=77	=77
2.P	2.viioD7c/V	16cLL	4r	24aLL
.	.	.	.	24b-
.	.	16e-	.	.
.	.	.	.	24a
.	.	16c	.	24b-
.	.	.	.	24a
.	.	16e-JJ	.	.
.	.	.	.	24b-JJ
.	.	16cLL	(4ee#	24aLL
.	.	.	.	24b-
.	.	16e-	.	.
.	.	.	.	24a
.	.	16c	.	24b-
.	.	.	.	24a
.	.	16e-JJ	.	.
.	.	.	.	24b-JJ
.	.	16cLL	4ff#)	24aLL
.	.	.	.	24b-
.	.	16e-	.	.
.	.	.	.	24a
.	.	16c	.	24b-
.	.	.	.	24a
.	.	16e-JJ	.	.
.	.	.	.	24b-JJ
=78	=78	=78	=78	=78
4D	4V7c	16dLL	(4gg	24bLL
.	.	.	.	24cc
.	.	16f	.	.
.	.	.	.	24b
.	.	16d	.	24cc
.	.	.	.	24b
.	.	16fJJ	.	.
.	.	.	.	24ccJJ
2D	2viioD7b	16dLL	([2aa-)	24bLL
.	.	.	.	24cc
.	.	16f	.	.
.	.	.	.	24b
.	.	16d	.	24cc
.	.	.	.	24b
.	.	16fJJ	.	.
.	.	.	.	24ccJJ
.	.	16dLL	.	24bLL
.	.	.	.	24cc
.	.	16f	.	.
.	.	.	.	24b
.	.	16d	.	24cc
.	.	.	.	24b
.	.	16fJJ	.	.
.	.	.	.	24ccJJ
=79	=79	=79	=79	=79
2.D	2.V7	16GLL	4aa-]	24bLL
.	.	.	.	24cc
.	.	16f	.	.
.	.	.	.	24b
.	.	16G	.	24cc
.	.	.	.	24b
.	.	16fJJ	.	.
.	.	.	.	24ccJJ
.	.	16GLL	4ff	24bLL
.	.	.	.	24cc
.	.	16f	.	.
.	.	.	.	24b
.	.	16G	.	24cc
.	.	.	.	24b
.	.	16fJJ	.	.
.	.	.	.	24ccJJ
.	.	16GLL	4gg)	4bn
.	.	16d	.	.
.	.	16G	.	.
.	.	16dJJ	.	.
=80	=80	=80	=80	=80
4T	4i	16cLL	8gg	4cc
.	.	16e-	.	.
.	.	16c	8r	.
.	.	16e-JJ	.	.
4T	4V	16GLL	2r	4b
.	.	16d	.	.
.	.	16G	.	.
.	.	16dJJ	.	.
4T	4i	8C 8c	.	8cc
.	.	8r	.	8r
*	*	*	*v	*v
*-	*-	*-	*-
